X:70
T:Chelsea Hornpipe. ThoH.070, The
Q:1/2=80
M:C
L:1/8
B:Thompson's Compleat Collection of 120 Favourite Hornpipes.
Z:Village Music Project, Simon Wilson 2016
O:England.
K:Bb
B,DFBd2dB|c2BAB2F>D|E2c>ED2B>D|E>E c>E D>D B>D|
EGcE DFBD|C2AB/c/B4:||:Bdfb{b}a2gf|{a}g2f=ef2A2|
B2g>BA2f>A|B>B g>B A>A f>A|BdgB AcfA|G2=e2f4|
gf_ed cBAG|FA (cd/e/)d4-|dcBA GFED|EGcB{B}A2(G/F/E)|
DFBD EGcE|DFBD EGcE|DFBd (gf)(ed)|(dc)(BA)B4:|

